X:1
T: Miss Macleod of Macleod's Reel
C:R. Mackintosh
R:Reel
Q: 232
K:Gm
M:4/4
L:1/8
|:d|b2 ag ad ^cd|eg fe fB AB|e2 dc dG ^FG|AB GB ^FD dc|
b2 ag ad ^cd|eg fe fB AB|ce dB Ac BG|^FD dF G2 Gd|
BG dG ^FD dc|BG dB Ac fe|dB gd cA ag|^fd =ef g1/2g1/2g gd|
BG dG ^FD dc|BG dB Ac fe|dB ba gd gf|ec Ad BG G:|
